X: 18715
T: Ian & Betty's
R: jig
M: 6/8
K: Gmajor
F|GDE G2A|Bee e2g|dee e2d|dBG ABA|
GDE G2A|Bee e2g|dee edB|1 ABA G2:|2 ABA G3||
|:Bee e2g|dee e2d|gGG ABB|AGE DEF|
GDE G2A|Bee e2g|dee edB|ABA G3:|

